events/images/advisory_board.svg

<?xml version="1.0" encoding="UTF-8" standalone="no"?>
<svg
   width="492"
   height="492"
   overflow="hidden"
   version="1.1"
   id="svg5"
   sodipodi:docname="advisory_board.svg"
   inkscape:version="1.4.3 (0d15f75, 2025-12-25)"
   xmlns:inkscape="http://www.inkscape.org/namespaces/inkscape"
   xmlns:sodipodi="http://sodipodi.sourceforge.net/DTD/sodipodi-0.dtd"
   xmlns="http://www.w3.org/2000/svg"
   xmlns:svg="http://www.w3.org/2000/svg">
  <defs
     id="defs5" />
  <sodipodi:namedview
     id="namedview5"
     pagecolor="#ffffff"
     bordercolor="#000000"
     borderopacity="0.25"
     inkscape:showpageshadow="2"
     inkscape:pageopacity="0.0"
     inkscape:pagecheckerboard="0"
     inkscape:deskcolor="#d1d1d1"
     inkscape:export-bgcolor="#ffffff00"
     inkscape:zoom="0.6875"
     inkscape:cx="262.54545"
     inkscape:cy="256.72727"
     inkscape:window-width="1914"
     inkscape:window-height="1144"
     inkscape:window-x="297"
     inkscape:window-y="109"
     inkscape:window-maximized="0"
     inkscape:current-layer="svg5" />
  <g
     id="g5"
     transform="translate(-394,-114)">
    <path
       d="M 394,270.043 C 394,183.863 463.863,114 550.043,114 H 729.957 C 816.137,114 886,183.863 886,270.043 V 449.957 C 886,536.137 816.137,606 729.957,606 H 550.043 C 463.863,606 394,536.137 394,449.957 Z"
       fill="#fceebd"
       fill-rule="evenodd"
       id="path1" />
    <g
       id="g4">
      <g
         id="g3">
        <g
           id="g2">
          <path
             d="m 803.127,419.267 c 4.604,-1.279 7.98,-5.213 8.548,-9.958 l 9.359,-77.986 c 0.779,-6.464 -3.83,-12.335 -10.295,-13.114 -0.242,-0.029 -0.485,-0.05 -0.73,-0.065 l -43.336,-2.551 c -6.182,-0.356 -11.59,4.124 -12.391,10.265 l -2.685,20.821 -6.619,-10.135 1.508,-11.69 c 1.279,-9.803 9.629,-17.136 19.514,-17.14 0.394,0 0.787,0 1.181,0.035 l 18.719,1.099 2.705,-16.605 c 1.035,-6.441 -3.347,-12.501 -9.788,-13.537 -0.354,-0.056 -0.71,-0.097 -1.067,-0.122 l -35.237,-2.362 c -6.102,-0.397 -11.498,3.928 -12.439,9.97 l -3.449,22.203 -6.434,-9.844 2.087,-13.537 c 1.436,-9.606 9.707,-16.701 19.42,-16.659 0.433,0 0.874,0 1.315,0.047 l 7.773,0.516 1.224,-11.025 c 0.712,-6.485 -3.968,-12.319 -10.454,-13.031 -0.12,-0.013 -0.241,-0.024 -0.362,-0.034 l -27.508,-2.114 c -6.371,-0.492 -11.977,4.171 -12.655,10.525 l -1.783,16.954 c -7.118,-5.648 -15.941,-8.715 -25.027,-8.701 h -3.438 v -27.563 c -0.003,-2.851 -1.136,-5.585 -3.15,-7.603 -1.446,-1.214 -3.062,-2.21 -4.795,-2.957 -14.513,-6.766 -31.26,-6.838 -45.829,-0.197 -2.022,0.806 -3.934,1.864 -5.69,3.15 -2.014,2.018 -3.147,4.752 -3.15,7.603 v 27.563 h -3.788 c -8.531,-0.01 -16.846,2.691 -23.743,7.713 l -1.669,-15.962 c -0.677,-6.344 -6.27,-11.004 -12.632,-10.525 l -27.507,2.114 c -6.504,0.511 -11.362,6.198 -10.851,12.702 0.01,0.121 0.021,0.242 0.035,0.363 l 1.224,11.025 7.773,-0.516 c 0.441,-0.032 0.882,-0.047 1.315,-0.047 9.713,-0.044 17.983,7.053 19.416,16.659 l 1.831,11.836 -6.434,9.844 -3.15,-20.499 c -0.941,-6.041 -6.337,-10.366 -12.439,-9.969 l -35.236,2.362 c -6.509,0.446 -11.424,6.084 -10.978,12.592 0.024,0.358 0.065,0.714 0.122,1.067 l 2.705,16.605 18.719,-1.099 c 0.394,-0.023 0.787,-0.035 1.181,-0.035 9.873,0.02 18.205,7.35 19.483,17.14 l 1.283,9.966 -6.654,10.139 -2.465,-19.105 c -0.801,-6.141 -6.209,-10.621 -12.391,-10.265 l -43.332,2.551 c -6.5,0.376 -11.466,5.949 -11.09,12.449 0.014,0.244 0.035,0.488 0.065,0.73 l 9.363,77.986 c 0.568,4.747 3.946,8.68 8.552,9.958 l 16.364,4.548 v 16.538 h -13.749 c -7.591,0.013 -13.743,6.162 -13.758,13.753 v 2.709 c -2.877,3.262 -2.564,8.239 0.698,11.115 3.261,2.877 8.238,2.565 11.115,-0.697 2.625,-2.977 2.625,-7.441 0,-10.418 v -2.709 c 0,-1.087 0.881,-1.968 1.968,-1.968 h 13.734 v 4.673 c -2.883,3.257 -2.58,8.234 0.677,11.117 3.256,2.883 8.233,2.58 11.116,-0.677 2.638,-2.98 2.638,-7.46 0,-10.44 v -4.673 H 518.8 c 1.087,0 1.969,0.881 1.969,1.968 v 2.709 c -2.877,3.262 -2.565,8.239 0.697,11.115 3.262,2.877 8.238,2.565 11.115,-0.697 2.625,-2.977 2.625,-7.441 0,-10.418 v -2.709 c -0.013,-7.592 -6.165,-13.744 -13.758,-13.757 h -13.781 v -11.155 c 2.444,1.599 5.124,2.804 7.942,3.571 l 25.342,6.772 c 12.576,3.358 25.286,6.079 38.131,8.163 v 36.571 c 0.017,5.402 3.695,10.103 8.934,11.419 l 5.926,1.481 c 31.673,6.331 64.311,6.076 95.882,-0.748 l 2.362,-0.63 c 5.15,-1.379 8.738,-6.037 8.757,-11.368 v -36.166 c 13.954,-2.12 27.783,-4.992 41.427,-8.603 l 25.928,-6.899 c 3.352,-0.895 6.505,-2.413 9.297,-4.473 v 12.065 h -13.758 c -7.593,0.013 -13.745,6.165 -13.758,13.757 v 2.709 c -2.883,3.257 -2.579,8.234 0.677,11.117 3.256,2.883 8.233,2.58 11.116,-0.677 2.638,-2.98 2.638,-7.46 0,-10.44 v -2.709 c 0,-1.087 0.882,-1.968 1.969,-1.968 h 13.758 v 4.673 c -2.883,3.257 -2.581,8.234 0.676,11.117 3.256,2.883 8.233,2.58 11.116,-0.677 2.639,-2.98 2.639,-7.46 0,-10.44 v -4.673 h 13.758 c 1.087,0 1.969,0.881 1.969,1.968 v 2.709 c -2.877,3.262 -2.565,8.239 0.697,11.115 3.262,2.877 8.238,2.565 11.115,-0.697 2.625,-2.977 2.625,-7.441 0,-10.418 v -2.709 c -0.013,-7.602 -6.179,-13.757 -13.781,-13.757 h -13.762 v -16.538 z m -67.426,5.194 c -31.464,8.367 -63.884,12.603 -96.441,12.6 -32.704,-0.003 -65.267,-4.28 -96.863,-12.722 l -25.342,-6.773 c -5.819,-1.268 -9.509,-7.013 -8.241,-12.833 0.288,-1.323 0.822,-2.579 1.575,-3.704 l 74.179,-113.731 c 4.562,-6.398 11.963,-10.163 19.821,-10.084 h 69.867 c 7.856,-0.079 15.256,3.682 19.822,10.076 l 74.229,113.723 c 3.315,4.946 1.992,11.643 -2.955,14.957 -1.129,0.757 -2.391,1.293 -3.719,1.581 z"
             fill="#00883a"
             id="path2" />
        </g>
      </g>
    </g>
  </g>
</svg>

<svg width="1280" height="720" xmlns="http://www.w3.org/2000/svg" xmlns:xlink="http://www.w3.org/1999/xlink" overflow="hidden"><g><rect x="0" y="0" width="1280" height="720" fill="#FFFFFF"/><path d="M394 270.043C394 183.863 463.863 114 550.043 114L729.957 114C816.137 114 886 183.863 886 270.043L886 449.957C886 536.137 816.137 606 729.957 606L550.043 606C463.863 606 394 536.137 394 449.957Z" fill="#FCEEBD" fill-rule="evenodd"/><g><g><g><path d="M803.127 419.267C807.731 417.988 811.107 414.054 811.675 409.309L821.034 331.323C821.813 324.859 817.204 318.988 810.739 318.209 810.497 318.18 810.254 318.159 810.009 318.144L766.673 315.593C760.491 315.237 755.083 319.717 754.282 325.858L751.597 346.679 744.978 336.544 746.486 324.854C747.765 315.051 756.115 307.718 766 307.714 766.394 307.714 766.787 307.714 767.181 307.749L785.9 308.848 788.605 292.243C789.64 285.802 785.258 279.742 778.817 278.706 778.463 278.65 778.107 278.609 777.75 278.584L742.513 276.222C736.411 275.825 731.015 280.15 730.074 286.192L726.625 308.395 720.191 298.551 722.278 285.014C723.714 275.408 731.985 268.313 741.698 268.355 742.131 268.355 742.572 268.355 743.013 268.402L750.786 268.918 752.01 257.893C752.722 251.408 748.042 245.574 741.556 244.862 741.436 244.849 741.315 244.838 741.194 244.828L713.686 242.714C707.315 242.222 701.709 246.885 701.031 253.239L699.248 270.193C692.13 264.545 683.307 261.478 674.221 261.492L670.783 261.492 670.783 233.929C670.78 231.078 669.647 228.344 667.633 226.326 666.187 225.112 664.571 224.116 662.838 223.369 648.325 216.603 631.578 216.531 617.009 223.172 614.987 223.978 613.075 225.036 611.319 226.322 609.305 228.34 608.172 231.074 608.169 233.925L608.169 261.488 604.381 261.488C595.85 261.478 587.535 264.179 580.638 269.201L578.969 253.239C578.292 246.895 572.699 242.235 566.337 242.714L538.83 244.828C532.326 245.339 527.468 251.026 527.979 257.53 527.989 257.651 528 257.772 528.014 257.893L529.238 268.918 537.011 268.402C537.452 268.37 537.893 268.355 538.326 268.355 548.039 268.311 556.309 275.408 557.742 285.014L559.573 296.85 553.139 306.694 549.989 286.195C549.048 280.154 543.652 275.829 537.55 276.226L502.314 278.588C495.805 279.034 490.89 284.672 491.336 291.18 491.36 291.538 491.401 291.894 491.458 292.247L494.163 308.852 512.882 307.753C513.276 307.73 513.669 307.718 514.063 307.718 523.936 307.738 532.268 315.068 533.546 324.858L534.829 334.824 528.175 344.963 525.71 325.858C524.909 319.717 519.501 315.237 513.319 315.593L469.987 318.144C463.487 318.52 458.521 324.093 458.897 330.593 458.911 330.837 458.932 331.081 458.962 331.323L468.325 409.309C468.893 414.056 472.271 417.989 476.877 419.267L493.241 423.815 493.241 440.353 479.492 440.353C471.901 440.366 465.749 446.515 465.734 454.106L465.734 456.815C462.857 460.077 463.17 465.054 466.432 467.93 469.693 470.807 474.67 470.495 477.547 467.233 480.172 464.256 480.172 459.792 477.547 456.815L477.547 454.106C477.547 453.019 478.428 452.138 479.515 452.138L493.249 452.138 493.249 456.811C490.366 460.068 490.669 465.045 493.926 467.928 497.182 470.811 502.159 470.508 505.042 467.251 507.68 464.271 507.68 459.791 505.042 456.811L505.042 452.138 518.8 452.138C519.887 452.138 520.769 453.019 520.769 454.106L520.769 456.815C517.892 460.077 518.204 465.054 521.466 467.93 524.728 470.807 529.704 470.495 532.581 467.233 535.206 464.256 535.206 459.792 532.581 456.815L532.581 454.106C532.568 446.514 526.416 440.362 518.823 440.349L505.042 440.349 505.042 429.194C507.486 430.793 510.166 431.998 512.984 432.765L538.326 439.537C550.902 442.895 563.612 445.616 576.457 447.7L576.457 484.271C576.474 489.673 580.152 494.374 585.391 495.69L591.317 497.171C622.99 503.502 655.628 503.247 687.199 496.423L689.561 495.793C694.711 494.414 698.299 489.756 698.318 484.425L698.318 448.259C712.272 446.139 726.101 443.267 739.745 439.656L765.673 432.757C769.025 431.862 772.178 430.344 774.97 428.284L774.97 440.349 761.212 440.349C753.619 440.362 747.467 446.514 747.454 454.106L747.454 456.815C744.571 460.072 744.875 465.049 748.131 467.932 751.387 470.815 756.364 470.512 759.247 467.255 761.885 464.275 761.885 459.795 759.247 456.815L759.247 454.106C759.247 453.019 760.129 452.138 761.216 452.138L774.974 452.138 774.974 456.811C772.091 460.068 772.393 465.045 775.65 467.928 778.906 470.811 783.883 470.508 786.766 467.251 789.405 464.271 789.405 459.791 786.766 456.811L786.766 452.138 800.524 452.138C801.611 452.138 802.493 453.019 802.493 454.106L802.493 456.815C799.616 460.077 799.928 465.054 803.19 467.93 806.452 470.807 811.428 470.495 814.305 467.233 816.93 464.256 816.93 459.792 814.305 456.815L814.305 454.106C814.292 446.504 808.126 440.349 800.524 440.349L786.762 440.349 786.762 423.811ZM735.701 424.461C704.237 432.828 671.817 437.064 639.26 437.061 606.556 437.058 573.993 432.781 542.397 424.339L517.055 417.566C511.236 416.298 507.546 410.553 508.814 404.733 509.102 403.41 509.636 402.154 510.389 401.029L584.568 287.298C589.13 280.9 596.531 277.135 604.389 277.214L674.256 277.214C682.112 277.135 689.512 280.896 694.078 287.29L768.307 401.013C771.622 405.959 770.299 412.656 765.352 415.97 764.223 416.727 762.961 417.263 761.633 417.551Z" fill="#00883A"/></g></g></g></g></svg>
